src/images/boarding-pass/barcode.svg

<svg height="120" viewBox="0 0 60 120" width="60" xmlns="http://www.w3.org/2000/svg"><g fill="none" fill-rule="evenodd"><path d="m1 1h58v118h-58z" stroke="#000" stroke-width="2"/><path d="m4 5h52v3h-52zm0 5h52v1h-52zm0 10h52v2h-52zm0 4h52v1h-52zm0 59h52v1h-52zm0-70h52v2h-52zm0 59h52v2h-52zm0-55h52v1h-52zm0 60h52v3h-52zm0-27v-3h52v3zm0-8v-1h52v1zm0 58v-1h52v1zm0-68v-2h52v2zm0 60v-2h52v2zm0-64v-1h52v1zm0 60v-1h52v1zm0-49v-2h52v2zm0 58v-2h52v2zm0-62v-1h52v1zm0 34v-2h52v2zm0-5v-1h52v1zm0-10v-2h52v2zm0 54v-2h52v2zm0-63v-1h52v1zm0 59v-1h52v1zm0-43v-2h52v2zm0-4v-1h52v1zm0 55v-1h52v1zm0 3v-1h52v1z" fill="#000"/></g></svg>

<svg xmlns="http://www.w3.org/2000/svg" width="60" height="120" viewBox="0 0 60 120">
  <g fill="none" fill-rule="evenodd">
    <rect width="58" height="118" x="1" y="1" stroke="#000000" stroke-width="2"/>
    <path fill="#000000" d="M4,5 L56,5 L56,8 L4,8 L4,5 Z M4,10 L56,10 L56,11 L4,11 L4,10 Z M4,20 L56,20 L56,22 L4,22 L4,20 Z M4,24 L56,24 L56,25 L4,25 L4,24 Z M4,83 L56,83 L56,84 L4,84 L4,83 Z M4,13 L56,13 L56,15 L4,15 L4,13 Z M4,72 L56,72 L56,74 L4,74 L4,72 Z M4,17 L56,17 L56,18 L4,18 L4,17 Z M4,77 L56,77 L56,80 L4,80 L4,77 Z M4,50 L4,47 L56,47 L56,50 L4,50 Z M4,42 L4,41 L56,41 L56,42 L4,42 Z M4,100 L4,99 L56,99 L56,100 L4,100 Z M4,32 L4,30 L56,30 L56,32 L4,32 Z M4,92 L4,90 L56,90 L56,92 L4,92 Z M4,28 L4,27 L56,27 L56,28 L4,28 Z M4,88 L4,87 L56,87 L56,88 L4,88 Z M4,39 L4,37 L56,37 L56,39 L4,39 Z M4,97 L4,95 L56,95 L56,97 L4,97 Z M4,35 L4,34 L56,34 L56,35 L4,35 Z M4,69 L4,67 L56,67 L56,69 L4,69 Z M4,64 L4,63 L56,63 L56,64 L4,64 Z M4,54 L4,52 L56,52 L56,54 L4,54 Z M4,108 L4,106 L56,106 L56,108 L4,108 Z M4,45 L4,44 L56,44 L56,45 L4,45 Z M4,104 L4,103 L56,103 L56,104 L4,104 Z M4,61 L4,59 L56,59 L56,61 L4,61 Z M4,57 L4,56 L56,56 L56,57 L4,57 Z M4,112 L4,111 L56,111 L56,112 L4,112 Z M4,115 L4,114 L56,114 L56,115 L4,115 Z"/>
  </g>
</svg>
